svg/map_marker_remove_outline.svg

<svg xmlns="http://www.w3.org/2000/svg" viewBox="0 0 24 24"><path d="m16.6 14.2-1.4 1.4 2.4 2.4-2.4 2.4 1.4 1.4 2.4-2.4 2.4 2.4 1.4-1.4-2.4-2.4 2.4-2.4-1.4-1.4-2.4 2.4M9 6.5c1.4 0 2.5 1.1 2.5 2.5s-1.1 2.5-2.5 2.5S6.5 10.4 6.5 9 7.6 6.5 9 6.5M9 2c3.9 0 7 3.1 7 7 0 5.2-7 13-7 13S2 14.2 2 9c0-3.9 3.1-7 7-7m0 2C6.2 4 4 6.2 4 9c0 1 0 3 5 9.7C14 12 14 10 14 9c0-2.8-2.2-5-5-5"/></svg>

<?xml version="1.0" encoding="UTF-8"?><!DOCTYPE svg PUBLIC "-//W3C//DTD SVG 1.1//EN" "http://www.w3.org/Graphics/SVG/1.1/DTD/svg11.dtd"><svg xmlns="http://www.w3.org/2000/svg" xmlns:xlink="http://www.w3.org/1999/xlink" version="1.1" id="mdi-map-marker-remove-outline" width="24" height="24" viewBox="0 0 24 24"><path d="M16.6 14.2L15.2 15.6L17.6 18L15.2 20.4L16.6 21.8L19 19.4L21.4 21.8L22.8 20.4L20.4 18L22.8 15.6L21.4 14.2L19 16.6M9 6.5C10.4 6.5 11.5 7.6 11.5 9S10.4 11.5 9 11.5 6.5 10.4 6.5 9 7.6 6.5 9 6.5M9 2C12.9 2 16 5.1 16 9C16 14.2 9 22 9 22S2 14.2 2 9C2 5.1 5.1 2 9 2M9 4C6.2 4 4 6.2 4 9C4 10 4 12 9 18.7C14 12 14 10 14 9C14 6.2 11.8 4 9 4Z" /></svg>
